icons/desktop/16/svg/plugin-slash-16.svg

<svg width="16" height="16" viewBox="0 0 16 16" fill="none" xmlns="http://www.w3.org/2000/svg">
<path fill-rule="evenodd" clip-rule="evenodd" d="M0.219727 0.21967C0.51262 -0.0732233 0.98738 -0.0732233 1.28027 0.21967L15.7803 14.7197C16.0732 15.0126 16.0732 15.4873 15.7803 15.7802C15.4874 16.0731 15.0126 16.0731 14.7197 15.7802L12.7285 13.789C11.156 13.928 9.56605 13.999 8 13.999C6.162 13.999 4.30354 13.9028 2.47754 13.7138C1.06477 13.5676 0 12.3894 0 10.9736V7.02436C0 5.60936 1.0551 4.43205 2.4541 4.28705C2.63507 4.26906 2.81803 4.26206 3 4.24506V4.06049L0.219727 1.28022C-0.0731667 0.987324 -0.0731667 0.512563 0.219727 0.21967ZM4.56152 5.62201C3.90877 5.66099 3.2574 5.71253 2.60938 5.78022C1.97737 5.84622 1.5 6.38133 1.5 7.02533V10.9746C1.5 11.6185 1.98593 12.1555 2.63184 12.2226C5.50559 12.5212 8.43133 12.5754 11.3291 12.3896L4.56152 5.62201Z" fill="black"/>
<path d="M11 1.99897C11.327 1.99897 11.7201 2.01897 12.1611 2.08197C12.6451 2.15203 13 2.5813 13 3.07026V4.23627C13.1745 4.25237 13.3493 4.26807 13.5234 4.28608C14.9362 4.43228 16.001 5.61046 16.001 7.02631V10.9755C16.001 11.5935 15.7922 12.1591 15.4492 12.6201L14.3584 11.5292C14.4414 11.3602 14.501 11.1775 14.501 10.9755V7.02631C14.501 6.38237 14.0151 5.84534 13.3691 5.77826C11.7051 5.60526 10.0149 5.51973 8.33789 5.50873L8.33887 5.51069L4.83594 2.00776C4.89193 2.00676 4.94399 2.0019 5.00098 2.0019C5.32798 2.0019 5.72111 2.0209 6.16211 2.0849C6.64706 2.15495 7.00098 2.58422 7.00098 3.07319V4.02924C7.66734 4.01676 8.33398 4.01524 9 4.02533V3.07319C9 2.57419 9.36437 2.15102 9.85938 2.08002C10.2013 2.03105 10.5841 1.99897 11 1.99897Z" fill="black"/>
</svg>

<!-- This Source Code Form is subject to the terms of the Mozilla Public
   - License, v. 2.0. If a copy of the MPL was not distributed with this
   - file, You can obtain one at http://mozilla.org/MPL/2.0/. -->
<svg xmlns="http://www.w3.org/2000/svg" width="16" height="16" fill="context-fill" fill-opacity="context-fill-opacity" viewBox="0 0 16 16">
    <path fill-rule="evenodd" d="M.22.22a.75.75 0 0 1 1.06 0l14.5 14.5a.75.75 0 1 1-1.06 1.06l-1.992-1.991c-1.572.139-3.162.21-4.728.21-1.838 0-3.696-.096-5.522-.285A2.75 2.75 0 0 1 0 10.974v-3.95a2.74 2.74 0 0 1 2.454-2.737c.181-.018.364-.025.546-.042V4.06L.22 1.28a.75.75 0 0 1 0-1.06m4.342 5.402q-.98.057-1.953.158A1.243 1.243 0 0 0 1.5 7.025v3.95c0 .643.486 1.18 1.132 1.248 2.874.298 5.8.352 8.697.167z" clip-rule="evenodd" />
    <path d="M11 1.999c.327 0 .72.02 1.161.083.484.07.839.5.839.988v1.166q.263.023.523.05a2.75 2.75 0 0 1 2.478 2.74v3.95c0 .617-.209 1.183-.552 1.644l-1.09-1.09c.082-.17.142-.352.142-.554v-3.95c0-.644-.486-1.18-1.132-1.248a52 52 0 0 0-5.031-.27v.003L4.837 2.008c.056-.001.108-.006.165-.006.327 0 .72.019 1.161.083.485.07.839.5.839.988v.956A59 59 0 0 1 9 4.025v-.952c0-.499.364-.922.86-.993A8 8 0 0 1 11 1.999" />
</svg>
